; generated by Slic3r 1.2.9 on 2018-02-08 at 16:11:06

; external perimeters extrusion width = 0.50mm
; perimeters extrusion width = 0.72mm
; infill extrusion width = 0.72mm
; solid infill extrusion width = 0.72mm
; top infill extrusion width = 0.72mm

M127
M104 S200 T0 ; set temperature
G28 ; home all axes
G1 Z5 F5000 ; lift nozzle

M73 P0
G1 Z0.500 F7800.000
G1 E-2.00000 F2400.00000
M103 ; extruder off
G1 X78.650 Y62.154 F7800.000
M101 ; extruder on
G1 E0.00000 F2400.00000
G1 X80.412 Y60.615 E0.14774 F1800.000
G1 X82.587 Y59.754 E0.29548
G1 X84.000 Y59.607 E0.38516
G1 X116.000 Y59.607 E2.40582
G1 X118.306 Y60.004 E2.55356
M101 ; extruder on
G1 X120.346 Y61.150 E2.70130 F1800.000
G1 X121.885 Y62.912 E2.84904
G1 X122.746 Y65.087 E2.99678
G1 X122.893 Y66.500 E3.08646
G1 X122.893 Y83.500 E4.15994
G1 X122.858 Y84.186 E4.20330
G1 X117.858 Y134.186 E7.37632
G1 X117.234 Y136.441 E7.52407
G1 X115.891 Y138.357 E7.67181
G1 X113.985 Y139.713 E7.81955
G1 X111.000 Y140.393 E8.01284
G1 X89.000 Y140.393 E9.40204
G1 X86.694 Y139.996 E9.54979
G1 X84.654 Y138.850 E9.69753
G1 X83.115 Y137.088 E9.84527
G1 X82.142 Y134.186 E10.03856
G1 X77.142 Y84.186 E13.21159
G1 X77.107 Y83.500 E13.25495
G1 X77.107 Y66.500 E14.32842
G1 X77.504 Y64.194 E14.47616
G1 X78.613 Y62.220 E14.61917
G1 E12.61917 F2400.00000
M103 ; extruder off
G1 X103.715 Y113.785 F7800.000
M101 ; extruder on
G1 E14.61917 F2400.00000
G1 X108.715 Y113.785 E14.93490 F1800.000
G1 X108.715 Y131.215 E16.03547
G1 X91.285 Y131.215 E17.13605
G1 X91.285 Y113.785 E18.23663
G1 X96.285 Y113.785 E18.55235
G1 X96.285 Y83.785 E20.44672
G1 X103.715 Y83.785 E20.91584
G1 X103.715 Y113.710 E22.80547
G1 X104.607 Y112.893 F7800.000
M101 ; extruder on
G1 X109.607 Y112.893 E23.12120 F1800.000
G1 X109.607 Y132.107 E24.33451
G1 X90.393 Y132.107 E25.54783
G1 X90.393 Y112.893 E26.76115
G1 X95.393 Y112.893 E27.07688
G1 X95.393 Y82.893 E28.97124
G1 X104.607 Y82.893 E29.55310
G1 X104.607 Y112.818 E31.44273
G1 X93.715 Y81.215 F7800.000
M101 ; extruder on
G1 X86.285 Y81.215 E31.91185 F1800.000
G1 X86.285 Y68.785 E32.69670
G1 X93.715 Y68.785 E33.16582
G1 X93.715 Y81.140 E33.94594
G1 X94.607 Y82.107 F7800.000
M101 ; extruder on
G1 X85.393 Y82.107 E34.52780 F1800.000
G1 X85.393 Y67.893 E35.42539
G1 X94.607 Y67.893 E36.00725
G1 X94.607 Y82.032 E36.90010
G1 X95.000 Y82.500 F7800.000
G1 X105.000 Y82.500 F7800.000
G1 X105.000 Y82.500 F7800.000
G1 X106.285 Y81.215 F7800.000
M101 ; extruder on
G1 X106.285 Y68.785 E37.68495 F1800.000
G1 X113.715 Y68.785 E38.15407
G1 X113.715 Y81.215 E38.93892
G1 X106.360 Y81.215 E39.40330
G1 X105.393 Y82.107 F7800.000
M101 ; extruder on
G1 X105.393 Y67.893 E40.30089 F1800.000
G1 X114.607 Y67.893 E40.88275
G1 X114.607 Y82.107 E41.78034
G1 X105.468 Y82.107 E42.35747
G1 X104.500 Y82.000 F7800.000
M101 ; extruder on
G1 X104.500 Y67.000 E43.30465 F1800.000
G1 X115.500 Y67.000 E43.99925
G1 X115.500 Y83.000 E45.00958
G1 X105.500 Y83.000 E45.64103
G1 X105.500 Y112.000 E47.47225
G1 X110.500 Y112.000 E47.78798
G1 X110.500 Y133.000 E49.11404
G1 X89.500 Y133.000 E50.44010
G1 X89.500 Y112.000 E51.76615
G1 X94.500 Y112.000 E52.08188
G1 X94.500 Y83.000 E53.91310
G1 X84.500 Y83.000 E54.54456
G1 X84.500 Y67.000 E55.55488
G1 X95.500 Y67.000 E56.24948
G1 X95.500 Y82.000 E57.19667
G1 X104.425 Y82.000 E57.76024
G1 X105.000 Y82.000 F7800.000
G1 X103.165 Y84.754 F7800.000
M101 ; extruder on
G1 X102.746 Y84.335 E57.79764 F1800.000
G1 X101.484 Y84.335 E57.87740
G1 X103.165 Y86.016 E58.02759
G1 X103.165 Y87.279 E58.10734
G1 X100.221 Y84.335 E58.37032
G1 X98.958 Y84.335 E58.45008
G1 X103.165 Y88.542 E58.82584
G1 X103.165 Y89.805 E58.90560
G1 X97.695 Y84.335 E59.39416
G1 X96.835 Y84.737 E59.45415
G1 X103.165 Y91.067 E60.01959
G1 X103.165 Y92.330 E60.09934
G1 X96.835 Y86.000 E60.66478
G1 X96.835 Y87.262 E60.74453
G1 X103.165 Y93.593 E61.30996
G1 X103.165 Y94.855 E61.38972
G1 X96.835 Y88.525 E61.95515
G1 X96.835 Y89.788 E62.03491
G1 X103.165 Y96.118 E62.60034
G1 X103.165 Y97.381 E62.68010
G1 X96.835 Y91.051 E63.24553
G1 X96.835 Y92.313 E63.32528
G1 X103.165 Y98.644 E63.89072
G1 X103.165 Y99.906 E63.97047
G1 X96.835 Y93.576 E64.53591
G1 X96.835 Y94.839 E64.61566
G1 X103.165 Y101.169 E65.18109
G1 X103.165 Y102.432 E65.26085
G1 X96.835 Y96.102 E65.82628
G1 X96.835 Y97.364 E65.90604
G1 X103.165 Y103.695 E66.47147
G1 X103.165 Y104.957 E66.55122
G1 X96.835 Y98.627 E67.11666
G1 X96.835 Y99.890 E67.19641
G1 X103.165 Y106.220 E67.76185
G1 X103.165 Y107.483 E67.84160
G1 X96.835 Y101.152 E68.40703
G1 X96.835 Y102.415 E68.48679
G1 X103.165 Y108.746 E69.05222
G1 X103.165 Y110.008 E69.13198
G1 X96.835 Y103.678 E69.69741
G1 X96.835 Y104.941 E69.77716
G1 X103.165 Y111.271 E70.34260
G1 X103.165 Y112.534 E70.42235
G1 X96.835 Y106.203 E70.98779
G1 X96.835 Y107.466 E71.06754
G1 X103.165 Y113.797 E71.63298
G1 X103.703 Y114.335 F7800.000
M101 ; extruder on
G1 X108.165 Y118.797 E72.03150 F1800.000
G1 X108.165 Y117.534 E72.11126
G1 X104.966 Y114.335 E72.39700
G1 X106.229 Y114.335 E72.47675
G1 X108.165 Y116.271 E72.64970
G1 X108.165 Y115.008 E72.72945
G1 X107.492 Y114.335 E72.78961
G1 X108.165 Y120.059 F7800.000
M101 ; extruder on
G1 X96.835 Y108.729 E73.80165 F1800.000
G1 X96.835 Y109.992 E73.88141
G1 X108.165 Y121.322 E74.89344
G1 X108.165 Y122.585 E74.97320
G1 X96.835 Y111.254 E75.98523
G1 X96.835 Y112.517 E76.06499
G1 X108.165 Y123.848 E77.07703
G1 X108.165 Y125.110 E77.15678
G1 X96.835 Y113.780 E78.16882
G1 X96.127 Y114.335 F7800.000
M101 ; extruder on
G1 X108.165 Y126.373 E79.24408 F1800.000
G1 X108.165 Y127.636 E79.32383
G1 X94.864 Y114.335 E80.51188
G1 X93.602 Y114.335 E80.59163
G1 X108.165 Y128.898 E81.89247
G1 X108.165 Y130.161 E81.97222
G1 X92.339 Y114.335 E83.38585
G1 X91.835 Y115.094 E83.44338
G1 X107.406 Y130.665 E84.83425
G1 X106.144 Y130.665 E84.91400
G1 X91.835 Y116.356 E86.19208
G1 X91.835 Y117.619 E86.27183
G1 X104.881 Y130.665 E87.43712
G1 X103.618 Y130.665 E87.51687
G1 X91.835 Y118.882 E88.56938
G1 X91.835 Y120.145 E88.64913
G1 X102.355 Y130.665 E89.58884
G1 X101.093 Y130.665 E89.66859
G1 X91.835 Y121.407 E90.49552
G1 X91.835 Y122.670 E90.57527
G1 X99.830 Y130.665 E91.28940
G1 X98.567 Y130.665 E91.36916
G1 X91.835 Y123.933 E91.97050
G1 X91.835 Y125.195 E92.05026
G1 X97.304 Y130.665 E92.53881
G1 X96.042 Y130.665 E92.61857
G1 X91.835 Y126.458 E92.99434
G1 X91.835 Y127.721 E93.07409
G1 X94.779 Y130.665 E93.33707
G1 X93.516 Y130.665 E93.41682
G1 X91.835 Y128.984 E93.56701
G1 X91.835 Y130.246 E93.64677
G1 X92.254 Y130.665 E93.68417
G1 X100.000 Y112.500 F7800.000
G1 X95.000 Y82.500 F7800.000
G1 X90.000 Y77.500 F7800.000
G1 X85.000 Y82.500 F7800.000
G1 X87.254 Y80.665 F7800.000
M101 ; extruder on
G1 X86.835 Y80.246 E93.72250 F1800.000
G1 X86.835 Y78.952 E93.80626
G1 X88.548 Y80.665 E93.96305
G1 X89.842 Y80.665 E94.04682
G1 X86.835 Y77.658 E94.32207
G1 X86.835 Y76.364 E94.40583
G1 X91.136 Y80.665 E94.79955
G1 X92.430 Y80.665 E94.88331
G1 X86.835 Y75.070 E95.39548
G1 X86.835 Y73.776 E95.47925
G1 X93.165 Y80.106 E96.05873
G1 X93.165 Y78.812 E96.14249
G1 X86.835 Y72.482 E96.72197
G1 X86.835 Y71.188 E96.80573
G1 X93.165 Y77.518 E97.38521
G1 X93.165 Y76.224 E97.46897
G1 X86.835 Y69.894 E98.04845
G1 X87.570 Y69.335 E98.10823
G1 X93.165 Y74.930 E98.62040
G1 X93.165 Y73.636 E98.70416
G1 X88.864 Y69.335 E99.09788
G1 X90.158 Y69.335 E99.18164
G1 X93.165 Y72.342 E99.45689
G1 X93.165 Y71.048 E99.54066
G1 X91.452 Y69.335 E99.69745
G1 X92.746 Y69.335 E99.78121
G1 X93.165 Y69.754 E99.81954
G1 X95.000 Y82.500 F7800.000
G1 X100.000 Y87.500 F7800.000
G1 X105.000 Y82.500 F7800.000
G1 X105.000 Y82.500 F7800.000
G1 X107.254 Y80.665 F7800.000
M101 ; extruder on
G1 X106.835 Y80.246 E99.85788 F1800.000
G1 X106.835 Y78.952 E99.94164
G1 X108.548 Y80.665 E100.09843
G1 X109.842 Y80.665 E100.18220
G1 X106.835 Y77.658 E100.45745
G1 X106.835 Y76.364 E100.54121
G1 X111.136 Y80.665 E100.93492
G1 X112.430 Y80.665 E101.01869
G1 X106.835 Y75.070 E101.53086
G1 X106.835 Y73.776 E101.61463
G1 X113.165 Y80.106 E102.19410
G1 X113.165 Y78.812 E102.27787
G1 X106.835 Y72.482 E102.85734
G1 X106.835 Y71.188 E102.94111
G1 X113.165 Y77.518 E103.52059
G1 X113.165 Y76.224 E103.60435
G1 X106.835 Y69.894 E104.18383
G1 X107.570 Y69.335 E104.24360
G1 X113.165 Y74.930 E104.75578
G1 X113.165 Y73.636 E104.83954
G1 X108.864 Y69.335 E105.23325
G1 X110.158 Y69.335 E105.31702
G1 X113.165 Y72.342 E105.59227
G1 X113.165 Y71.048 E105.67604
G1 X111.452 Y69.335 E105.83283
G1 X112.746 Y69.335 E105.91659
G1 X113.165 Y69.754 E105.95492
M73 P1
G1 Z0.800 F7800.000
G1 E103.95492 F2400.00000
M103 ; extruder off
G1 X104.550 Y112.950 F7800.000
M101 ; extruder on
G1 E105.95492 F2400.00000
G1 X109.550 Y112.950 E106.09381 F3600.000
G1 X109.550 Y132.050 E106.62439
G1 X90.450 Y132.050 E107.15497
G1 X90.450 Y112.950 E107.68555
G1 X95.450 Y112.950 E107.82444
G1 X95.450 Y82.950 E108.65777
G1 X104.550 Y82.950 E108.91058
G1 X104.550 Y112.875 E109.74183
G1 X94.550 Y82.050 F7800.000
M101 ; extruder on
G1 X85.450 Y82.050 E109.99463 F3600.000
G1 X85.450 Y67.950 E110.38632
G1 X94.550 Y67.950 E110.63912
G1 X94.550 Y81.975 E111.02873
G1 X105.450 Y82.050 F7800.000
M101 ; extruder on
G1 X105.450 Y67.950 E111.42042 F3600.000
G1 X114.550 Y67.950 E111.67322
G1 X114.550 Y82.050 E112.06492
G1 X105.525 Y82.050 E112.31563
G1 X104.795 Y82.295 F7800.000
M101 ; extruder on
G1 X104.795 Y67.295 E112.73230 F3600.000
G1 X115.205 Y67.295 E113.02146
G1 X115.205 Y82.705 E113.44952
G1 X105.205 Y82.705 E113.72729
G1 X105.205 Y112.295 E114.54924
G1 X110.205 Y112.295 E114.68813
G1 X110.205 Y132.705 E115.25507
G1 X89.795 Y132.705 E115.82201
G1 X89.795 Y112.295 E116.38895
G1 X94.795 Y112.295 E116.52784
G1 X94.795 Y82.705 E117.34979
G1 X84.795 Y82.705 E117.62757
G1 X84.795 Y67.295 E118.05562
G1 X95.205 Y67.295 E118.34479
G1 X95.205 Y82.295 E118.76145
G1 X104.720 Y82.295 E119.02576
G1 X104.250 Y81.750 F7800.000
M101 ; extruder on
G1 X104.250 Y66.750 E119.30308 F1800.000
G1 X115.750 Y66.750 E119.51570
G1 X115.750 Y83.250 E119.82076
G1 X105.750 Y83.250 E120.00564
G1 X105.750 Y111.750 E120.53255
G1 X110.750 Y111.750 E120.62500
G1 X110.750 Y133.250 E121.02249
G1 X89.250 Y133.250 E121.41999
G1 X89.250 Y111.750 E121.81749
G1 X94.250 Y111.750 E121.90993
G1 X94.250 Y83.250 E122.43685
G1 X84.250 Y83.250 E122.62173
G1 X84.250 Y66.750 E122.92678
G1 X95.750 Y66.750 E123.13940
G1 X95.750 Y81.750 E123.41672
G1 X104.175 Y81.750 E123.57249
G1 X104.750 Y81.750 F7800.000
G1 X113.835 Y81.653 F7800.000
M101 ; extruder on
G1 X114.153 Y81.335 E123.58534 F1200.000
G1 X114.153 Y80.382 E123.61263
G1 X112.882 Y81.653 E123.66407
G1 X111.928 Y81.653 E123.69135
G1 X114.153 Y79.428 E123.78137
G1 X114.153 Y78.475 E123.80866
G1 X110.975 Y81.653 E123.93727
G1 X110.021 Y81.653 E123.96455
G1 X114.153 Y77.521 E124.13174
G1 X114.153 Y76.568 E124.15903
G1 X109.068 Y81.653 E124.36480
G1 X108.114 Y81.653 E124.39209
G1 X114.153 Y75.614 E124.63645
G1 X114.153 Y74.661 E124.66373
G1 X107.161 Y81.653 E124.94668
G1 X106.207 Y81.653 E124.97396
G1 X114.153 Y73.707 E125.29550
G1 X114.153 Y72.754 E125.32278
G1 X105.847 Y81.060 E125.65890
G1 X105.847 Y80.106 E125.68618
G1 X114.153 Y71.800 E126.02230
G1 X114.153 Y70.847 E126.04958
G1 X105.847 Y79.153 E126.38570
G1 X105.847 Y78.199 E126.41298
G1 X114.153 Y69.894 E126.74910
G1 X114.153 Y68.940 E126.77638
G1 X105.847 Y77.246 E127.11250
G1 X105.847 Y76.293 E127.13978
G1 X113.793 Y68.347 E127.46131
G1 X112.839 Y68.347 E127.48860
G1 X105.847 Y75.339 E127.77154
G1 X105.847 Y74.386 E127.79882
G1 X111.886 Y68.347 E128.04319
G1 X110.932 Y68.347 E128.07047
G1 X105.847 Y73.432 E128.27625
G1 X105.847 Y72.479 E128.30353
G1 X109.979 Y68.347 E128.47072
G1 X109.025 Y68.347 E128.49801
G1 X105.847 Y71.525 E128.62661
G1 X105.847 Y70.572 E128.65390
G1 X108.072 Y68.347 E128.74392
G1 X107.118 Y68.347 E128.77121
G1 X105.847 Y69.618 E128.82265
G1 X105.847 Y68.665 E128.84993
G1 X106.165 Y68.347 E128.86278
G1 X105.000 Y82.500 F7800.000
G1 X100.000 Y87.500 F7800.000
G1 X95.000 Y82.500 F7800.000
G1 X95.000 Y82.500 F7800.000
G1 X93.835 Y81.653 F7800.000
M101 ; extruder on
G1 X94.153 Y81.335 E128.87564 F1200.000
G1 X94.153 Y80.382 E128.90292
G1 X92.882 Y81.653 E128.95436
G1 X91.928 Y81.653 E128.98165
G1 X94.153 Y79.428 E129.07167
G1 X94.153 Y78.475 E129.09895
G1 X90.975 Y81.653 E129.22756
G1 X90.021 Y81.653 E129.25485
G1 X94.153 Y77.521 E129.42204
G1 X94.153 Y76.568 E129.44932
G1 X89.068 Y81.653 E129.65510
G1 X88.114 Y81.653 E129.68238
G1 X94.153 Y75.614 E129.92675
G1 X94.153 Y74.661 E129.95403
G1 X87.161 Y81.653 E130.23698
G1 X86.207 Y81.653 E130.26426
G1 X94.153 Y73.707 E130.58579
G1 X94.153 Y72.754 E130.61308
G1 X85.847 Y81.060 E130.94919
G1 X85.847 Y80.106 E130.97648
G1 X94.153 Y71.800 E131.31259
G1 X94.153 Y70.847 E131.33988
G1 X85.847 Y79.153 E131.67599
G1 X85.847 Y78.199 E131.70328
G1 X94.153 Y69.894 E132.03939
G1 X94.153 Y68.940 E132.06668
G1 X85.847 Y77.246 E132.40279
G1 X85.847 Y76.293 E132.43008
G1 X93.793 Y68.347 E132.75161
G1 X92.839 Y68.347 E132.77889
G1 X85.847 Y75.339 E133.06184
G1 X85.847 Y74.386 E133.08912
G1 X91.886 Y68.347 E133.33348
G1 X90.932 Y68.347 E133.36077
G1 X85.847 Y73.432 E133.56654
G1 X85.847 Y72.479 E133.59383
G1 X89.979 Y68.347 E133.76102
G1 X89.025 Y68.347 E133.78830
G1 X85.847 Y71.525 E133.91691
G1 X85.847 Y70.572 E133.94420
G1 X88.072 Y68.347 E134.03422
G1 X87.118 Y68.347 E134.06150
G1 X85.847 Y69.618 E134.11294
G1 X85.847 Y68.665 E134.14023
G1 X86.165 Y68.347 E134.15308
G1 X95.847 Y83.665 F7800.000
M101 ; extruder on
G1 X96.165 Y83.347 E134.16573 F1200.000
G1 X97.103 Y83.347 E134.19214
G1 X95.847 Y84.603 E134.24213
G1 X95.847 Y85.541 E134.26854
G1 X98.041 Y83.347 E134.35589
G1 X98.979 Y83.347 E134.38230
G1 X95.847 Y86.479 E134.50700
G1 X95.847 Y87.417 E134.53341
G1 X99.917 Y83.347 E134.69545
G1 X100.855 Y83.347 E134.72186
G1 X95.847 Y88.355 E134.92126
G1 X95.847 Y89.293 E134.94767
G1 X101.793 Y83.347 E135.18441
G1 X102.731 Y83.347 E135.21082
G1 X95.847 Y90.231 E135.48492
G1 X95.847 Y91.169 E135.51133
G1 X103.669 Y83.347 E135.82278
G1 X104.153 Y83.802 E135.84146
G1 X95.847 Y92.108 E136.17215
G1 X95.847 Y93.046 E136.19856
G1 X104.153 Y84.740 E136.52926
G1 X104.153 Y85.678 E136.55567
G1 X95.847 Y93.984 E136.88637
G1 X95.847 Y94.922 E136.91278
G1 X104.153 Y86.616 E137.24347
G1 X104.153 Y87.554 E137.26988
G1 X95.847 Y95.860 E137.60058
G1 X95.847 Y96.798 E137.62699
G1 X104.153 Y88.492 E137.95768
G1 X104.153 Y89.430 E137.98410
G1 X95.847 Y97.736 E138.31479
G1 X95.847 Y98.674 E138.34120
G1 X104.153 Y90.368 E138.67190
G1 X104.153 Y91.306 E138.69831
G1 X95.847 Y99.612 E139.02900
G1 X95.847 Y100.550 E139.05541
G1 X104.153 Y92.245 E139.38611
G1 X104.153 Y93.183 E139.41252
G1 X95.847 Y101.489 E139.74321
G1 X95.847 Y102.427 E139.76963
G1 X104.153 Y94.121 E140.10032
G1 X104.153 Y95.059 E140.12673
G1 X95.847 Y103.365 E140.45743
G1 X95.847 Y104.303 E140.48384
G1 X104.153 Y95.997 E140.81453
G1 X104.153 Y96.935 E140.84094
G1 X95.847 Y105.241 E141.17164
G1 X95.847 Y106.179 E141.19805
G1 X104.153 Y97.873 E141.52874
G1 X104.153 Y98.811 E141.55516
G1 X95.847 Y107.117 E141.88585
G1 X95.847 Y108.055 E141.91226
G1 X104.153 Y99.749 E142.24296
G1 X104.153 Y100.687 E142.26937
G1 X95.847 Y108.993 E142.60006
G1 X95.847 Y109.931 E142.62647
G1 X104.153 Y101.626 E142.95717
G1 X104.153 Y102.564 E142.98358
G1 X95.847 Y110.870 E143.31428
G1 X95.847 Y111.808 E143.34069
G1 X104.153 Y103.502 E143.67138
G1 X104.153 Y104.440 E143.69779
G1 X95.847 Y112.746 E144.02849
G1 X95.246 Y113.347 F7800.000
M101 ; extruder on
G1 X90.847 Y117.746 E144.20362 F1200.000
G1 X90.847 Y118.684 E144.23003
G1 X104.153 Y105.378 E144.75980
G1 X104.153 Y106.316 E144.78621
G1 X90.847 Y119.622 E145.31598
G1 X90.847 Y120.560 E145.34239
G1 X104.153 Y107.254 E145.87215
G1 X104.153 Y108.192 E145.89856
G1 X90.847 Y121.498 E146.42833
G1 X90.847 Y122.436 E146.45474
G1 X104.153 Y109.130 E146.98451
G1 X104.153 Y110.068 E147.01092
G1 X90.847 Y123.374 E147.54069
G1 X90.847 Y124.313 E147.56710
G1 X104.153 Y111.007 E148.09686
G1 X104.153 Y111.945 E148.12327
G1 X90.847 Y125.251 E148.65304
G1 X90.847 Y126.189 E148.67945
G1 X104.153 Y112.883 E149.20922
G1 X104.627 Y113.347 F7800.000
